assets/icons/location.svg

<svg width="24" height="25" viewBox="0 0 24 25" fill="none" xmlns="http://www.w3.org/2000/svg">
<path d="M14.3701 10.9476C14.3701 9.63881 13.3088 8.57758 12 8.57751C10.6911 8.57751 9.62988 9.63877 9.62988 10.9476C9.62997 12.2565 10.6912 13.3177 12 13.3177C13.3088 13.3177 14.37 12.2565 14.3701 10.9476ZM15.8701 10.9476C15.87 13.0849 14.1372 14.8177 12 14.8177C9.86275 14.8177 8.12997 13.085 8.12988 10.9476C8.12988 8.81032 9.8627 7.07751 12 7.07751C14.1372 7.07758 15.8701 8.81036 15.8701 10.9476Z" fill="#111111"/>
<path d="M12.0049 1.88758C15.9853 1.89027 20.0407 4.23769 21.1123 8.97156L21.2149 9.48426C22.141 14.7455 18.8404 19.1064 16.1201 21.7186C13.8187 23.9384 10.1801 23.9362 7.8711 21.7186L7.87013 21.7177C5.07238 19.0213 1.64696 14.4513 2.88966 8.96179V8.96082L2.99903 8.52429C4.21994 4.083 8.1487 1.88499 12.0049 1.88758ZM12.0039 3.38758C8.5876 3.38527 5.24528 5.36723 4.35157 9.29187L4.35255 9.29285C3.29538 13.9628 6.18821 18.013 8.91017 20.6366L9.0752 20.788C10.8096 22.2971 13.4152 22.2445 15.0801 20.6376L15.0811 20.6366L15.5947 20.1288C18.0743 17.5936 20.4752 13.9348 19.7373 9.73914L19.6494 9.30359C18.7609 5.37774 15.4209 3.38989 12.0039 3.38758Z" fill="#111111"/>
</svg>

<svg xmlns="http://www.w3.org/2000/svg" width="24" height="25" fill="none" viewBox="0 0 24 25"><path fill="#111" d="M14.37 10.948a2.37 2.37 0 1 0-4.74 0 2.37 2.37 0 0 0 4.74 0m1.5 0a3.87 3.87 0 1 1-7.74 0 3.87 3.87 0 0 1 7.74 0"/><path fill="#111" d="M12.005 1.888c3.98.002 8.036 2.35 9.107 7.084l.103.512c.926 5.262-2.375 9.622-5.095 12.235a5.944 5.944 0 0 1-8.249 0v-.001C5.071 19.02 1.646 14.45 2.89 8.962V8.96l.109-.437c1.22-4.441 5.15-6.639 9.006-6.636m-.001 1.5c-3.416-.003-6.759 1.98-7.652 5.904-1.057 4.67 1.836 8.721 4.558 11.345l.165.151a4.443 4.443 0 0 0 6.005-.15l.001-.001.514-.508c2.48-2.535 4.88-6.194 4.142-10.39l-.088-.435c-.888-3.926-4.228-5.914-7.645-5.916"/></svg>
